src/standard/butterfly.svg

<?xml version="1.0" encoding="UTF-8"?><svg id="a" xmlns="http://www.w3.org/2000/svg" viewBox="0 0 36 36"><title>Butterfly icon - Black</title>
<desc>insect, bug, fly, natural, wings, migrate, migration, science and nature</desc>
<metadata><?xpacket begin="﻿" id="W5M0MpCehiHzreSzNTczkc9d"?>
<x:xmpmeta xmlns:x="adobe:ns:meta/" x:xmptk="Adobe XMP Core 8.0-c001 1.000000, 0000/00/00-00:00:00        ">
   <rdf:RDF xmlns:rdf="http://www.w3.org/1999/02/22-rdf-syntax-ns#">
      <rdf:Description rdf:about=""
            xmlns:xmp="http://ns.adobe.com/xap/1.0/"
            xmlns:dc="http://purl.org/dc/elements/1.1/"
            xmlns:cq="http://www.day.com/jcr/cq/1.0"
            xmlns:tiff="http://ns.adobe.com/tiff/1.0/">
         <xmp:rhcc-effective-on>2023-12-08T17:41:01.737Z</xmp:rhcc-effective-on>
         <xmp:rhcc-metadata-complete-moderator>pending</xmp:rhcc-metadata-complete-moderator>
         <xmp:rhcc-translation-id>TRA82954e2a-3c82-48cc-bdf4-6036fceb3a00</xmp:rhcc-translation-id>
         <xmp:brand-content-type>Icon</xmp:brand-content-type>
         <xmp:CreateDate>2023-12-08T17:41:01.737Z</xmp:CreateDate>
         <xmp:rhcc-effective-on-set-on-upload>true</xmp:rhcc-effective-on-set-on-upload>
         <xmp:rhcc-metadata-complete-uploader>pending</xmp:rhcc-metadata-complete-uploader>
         <xmp:rhcc-file-last-modified>2023-12-08T17:42:25.325Z</xmp:rhcc-file-last-modified>
         <xmp:rhcc-audience>rhcc-audience:internal</xmp:rhcc-audience>
         <xmp:rhcc-rights-restricted>no</xmp:rhcc-rights-restricted>
         <xmp:brand-content-subtype>Icon</xmp:brand-content-subtype>
         <xmp:rhcc-derivative-id>DER82954e2a-3c82-48cc-bdf4-6036fceb3a00</xmp:rhcc-derivative-id>
         <xmp:brand-logo-color>Black</xmp:brand-logo-color>
         <xmp:rhcc-notify-portal-subscribers-on-change>yes</xmp:rhcc-notify-portal-subscribers-on-change>
         <dc:format>image/svg+xml</dc:format>
         <dc:modified>2024-02-09T20:25:59.032Z</dc:modified>
         <dc:title>
            <rdf:Alt>
               <rdf:li xml:lang="x-default">Butterfly icon - Black</rdf:li>
            </rdf:Alt>
         </dc:title>
         <dc:description>
            <rdf:Alt>
               <rdf:li xml:lang="x-default">insect, bug, fly, natural, wings, migrate, migration, science and nature</rdf:li>
            </rdf:Alt>
         </dc:description>
         <cq:lastReplicationAction_scene7>Activate</cq:lastReplicationAction_scene7>
         <cq:lastReplicationAction_publish>Activate</cq:lastReplicationAction_publish>
         <cq:lastReplicated_publish>2024-02-09T22:10:28.029Z</cq:lastReplicated_publish>
         <cq:lastReplicatedBy>workflow-process-service</cq:lastReplicatedBy>
         <cq:lastReplicationAction>Activate</cq:lastReplicationAction>
         <cq:lastReplicatedBy_publish>workflow-process-service</cq:lastReplicatedBy_publish>
         <cq:isDelivered>true</cq:isDelivered>
         <cq:lastReplicated>2024-02-09T22:10:28.029Z</cq:lastReplicated>
         <cq:lastReplicatedBy_scene7>workflow-process-service</cq:lastReplicatedBy_scene7>
         <cq:lastReplicated_scene7>2024-02-09T22:10:28.029Z</cq:lastReplicated_scene7>
         <tiff:ImageLength>36</tiff:ImageLength>
         <tiff:ImageWidth>36</tiff:ImageWidth>
      </rdf:Description>
   </rdf:RDF>
</x:xmpmeta>
                                                                                                    
                                                                                                    
                                                                                                    
                                                                                                    
                                                                                                    
                                                                                                    
                                                                                                    
                                                                                                    
                                                                                                    
                                                                                                    
                                 
<?xpacket end="w"?></metadata>
<path d="m31,8.375h-5c-2.2789,0-4.2925,1.157-5.4852,2.9142-.1104-.3891-.3049-.7399-.5678-1.0333l.6643-3.1261c.0718-.3379-.1436-.6699-.4814-.7412-.3403-.0771-.6694.1436-.7412.4814l-.5633,2.6507c-.261-.0873-.5353-.1458-.8254-.1458s-.5643.0585-.8254.1458l-.5633-2.6507c-.0718-.3379-.4033-.5596-.7412-.4814-.3379.0713-.5532.4033-.4814.7412l.6643,3.1261c-.2629.2933-.4575.6442-.5678,1.0333-1.1926-1.7573-3.2062-2.9143-5.4852-2.9143h-5c-.3452,0-.625.2803-.625.625v5c0,3.0202,2.0334,5.5692,4.8013,6.3638-1.088.847-1.8013,2.1541-1.8013,3.6362,0,2.5498,2.0747,4.625,4.625,4.625,1.4349,0,2.7031-.6707,3.5521-1.6994.376.9903,1.3275,1.6994,2.4479,1.6994s2.072-.7092,2.448-1.6994c.849,1.0287,2.1171,1.6994,3.552,1.6994,2.5503,0,4.625-2.0752,4.625-4.625,0-1.4821-.7134-2.7891-1.8013-3.6362,2.7679-.7946,4.8013-3.3436,4.8013-6.3638v-5c0-.3447-.2798-.625-.625-.625ZM12,27.375c-1.8608,0-3.375-1.5137-3.375-3.375s1.5142-3.375,3.375-3.375h1c.3452,0,.625-.2803.625-.625s-.2798-.625-.625-.625h-2c-2.9639,0-5.375-2.4111-5.375-5.375v-4.375h4.375c2.9639,0,5.375,2.4111,5.375,5.375v9c0,1.8613-1.5142,3.375-3.375,3.375Zm7.375-1.375c0,.7578-.6167,1.375-1.375,1.375s-1.375-.6172-1.375-1.375v-14c0-.7578.6167-1.375,1.375-1.375s1.375.6172,1.375,1.375v14Zm11-12c0,2.9639-2.4111,5.375-5.375,5.375h-2c-.3452,0-.625.2803-.625.625s.2798.625.625.625h1c1.8608,0,3.375,1.5137,3.375,3.375s-1.5142,3.375-3.375,3.375-3.375-1.5137-3.375-3.375v-9c0-2.9639,2.4111-5.375,5.375-5.375h4.375v4.375Z"/></svg>

<svg xmlns="http://www.w3.org/2000/svg" viewBox="0 0 36 36">
  <path d="M31 8.375h-5a6.623 6.623 0 0 0-5.485 2.914 2.603 2.603 0 0 0-.568-1.033l.664-3.126a.624.624 0 0 0-.481-.741.62.62 0 0 0-.741.481l-.564 2.65c-.26-.087-.535-.145-.825-.145s-.564.058-.825.146L16.61 6.87a.62.62 0 0 0-.74-.481.624.624 0 0 0-.482.74l.664 3.127a2.61 2.61 0 0 0-.568 1.033A6.623 6.623 0 0 0 10 8.375H5A.625.625 0 0 0 4.375 9v5c0 3.02 2.033 5.57 4.801 6.364-1.088.847-1.801 2.154-1.801 3.636A4.63 4.63 0 0 0 12 28.625c1.435 0 2.703-.67 3.552-1.7.376.99 1.328 1.7 2.448 1.7s2.072-.71 2.448-1.7c.849 1.03 2.117 1.7 3.552 1.7A4.63 4.63 0 0 0 28.625 24c0-1.482-.713-2.79-1.801-3.636 2.768-.795 4.801-3.344 4.801-6.364V9A.625.625 0 0 0 31 8.375Zm-19 19c-1.86 0-3.375-1.514-3.375-3.375s1.514-3.375 3.375-3.375h1a.625.625 0 0 0 0-1.25h-2A5.38 5.38 0 0 1 5.625 14V9.625H10A5.38 5.38 0 0 1 15.375 15v9A3.379 3.379 0 0 1 12 27.375ZM19.375 26c0 .758-.617 1.375-1.375 1.375s-1.375-.617-1.375-1.375V12c0-.758.617-1.375 1.375-1.375s1.375.617 1.375 1.375v14Zm11-12A5.38 5.38 0 0 1 25 19.375h-2a.625.625 0 0 0 0 1.25h1c1.86 0 3.375 1.514 3.375 3.375S25.861 27.375 24 27.375 20.625 25.861 20.625 24v-9A5.38 5.38 0 0 1 26 9.625h4.375V14Z"/>
</svg>
